X:1
T:Title
%%score ( 1 2 ) { 3 | 4 }
L:1/8
Q:1/4=105
M:4/4
K:E
V:1 treble nm="Grand Piano, Soprano"
V:2 treble 
V:3 bass nm="Choir Pad, Kiribati, 87.87 D, McMeans"
V:4 bass 
V:1
 [EG][EF] [B,E]2 [B,E]2 [CE]2 | [DF]2 [EG]2 [EG]4 | [EG][FA] [GB]2 [GB]2 [FB]2 | [Fc]2 [FB]6 | %4
w: By~W.~Ross~McMeans,~1922 * * * *||||
 [EG][EF] [B,E]2 [B,E]2 [CE]2 | [DF]2 [EG]2 [EG]4 | [B,E][DF] [EG]2 [EB]2 [EG]2 | [DF]2 [B,E]6 | %8
w: ||||
 [EB][Ec] [Ge]2 [Ge]2 [Ae]2 | [Ac]2 [GB]2 [GB]4 | [EG][DF] [CE]2 [CE]2 [DF]2 | z2 G6 | %12
w: ||||
 [EB][Ec] [Ge]2 [Ge]2 [Ae]2 | [Ac]2 [GB]2 [GB]4 | [B,E][DF] [EG]2 [EB]2 [EG]2 | [DF]2 E2 C2 B,2- | %16
w: ||||
 B,6 z2 |] %17
w: |
V:2
 x8 | x8 | x8 | x8 | x8 | x8 | x8 | x8 | x8 | x8 | x8 | [DF]2 E2 E2 E2 | x8 | x8 | x8 | x8 | x8 |] %17
V:3
 B,A, G,2 G,2 G,2 | B,2 B,2 B,4 | B,B,[K:treble] E2 E2 D2 | E2 D6 | B,A, G,2 G,2 G,2 | %5
 B,2 B,2 B,4 | B,B, B,2 B,2 B,2 | A,2 G,6 | G,A, B,2 B,2[K:treble] C2 | E2 E2 E4 | %10
 B,[K:bass]A, G,2 G,2 B,2 | B,2 B,2 C2 B,2 | G,A, B,2 B,2[K:treble] C2 | E2 E2 E4 | %14
 B,[K:bass]B, B,2 B,2 B,2 | A,2 G,2 A,2 G,2- | G,6 z2 |] %17
V:4
 E,E, E,2 E,2 C,2 | B,,2 E,2 E,4 | E,E, E,2 E,2 F,2 | F,2 B,,6 | E,E, E,2 E,2 C,2 | B,,2 E,2 E,4 | %6
 G,F, E,2 G,2 z2 | B,,2 E,6 | E,E, E,2 E,2 A,2 | A,2 E,2 E,4 | E,B,, C,2 C,2 B,,2 | %11
 B,,2 E,2 E,2 E,2 | E,E, E,2 E,2 A,2 | A,2 E,2 E,4 | G,F, E,2 G,2 z2 | B,,2 E,6- | E,6 z2 |] %17

